X:131
T:John Joe Hartnett's
R:slide
D:\'Eamonn O'Riordan & Tony O'Connell: Rooska Hill
Z:id:hn-slide-131
M:6/8
L:1/8
K:D
AFA d2B | AFA d2f | ede fed | ede fdB |
AFA d2B | AFA dB/c/d | ede efe |1 d3 B3 :|2 d3 d2b ||
|: aba a2g | f/g/af f2e | def gfe | def adf |
abf a2g | f/g/af f2e | def gfe |1 d3 d2b :|2 d3 B3 ||

